src/standalone/horseback-riding-white-14.svg

<?xml version="1.0" encoding="utf-8"?>
<!-- Generator: Adobe Illustrator 25.4.1, SVG Export Plug-In . SVG Version: 6.00 Build 0)  -->
<svg version="1.1" id="Icons" xmlns="http://www.w3.org/2000/svg" xmlns:xlink="http://www.w3.org/1999/xlink" x="0px" y="0px"
	 width="14px" height="14px" viewBox="0 0 14 14" enable-background="new 0 0 14 14" xml:space="preserve">
<path fill="#ffffff" d="M4,0c0.6,0,1,0.4,1,1S4.6,2,4,2S3,1.6,3,1S3.4,0,4,0z"/>
<path fill="#ffffff" d="M12,4V2L8,6H5V4l2,1h1L5,3H3v3H0v4h1v4h1v-3h1l0.9,3h1L4,11v-1h4v4h1v-3l0.9,3h1L10,11V9h3V6h1V5.1L12,4z
	 M1,8V7h1L1,8z M12,8h-2l1-2h1V8z"/>
</svg>

<svg id="Icons" xmlns="http://www.w3.org/2000/svg" width="14" height="14" viewBox="0 0 14 14">
  <title>horseback-riding-14-rev</title>
  <rect fill="#FFFFFF" x="3" width="2" height="2"/>
  <g>
    <path fill="#FFFFFF" d="M14,5.1,12,4V2L8,6H5V4L7,5H8L5,3H3V6H0V10H1v4H2V11H3l.9,3h1L4,11V10H8v4H9V10l.5-1H13V6h1ZM1,8V7H2ZM12,8H10l1-2h1Z"/>
  </g>
</svg>
